svgs/solid/jug-bottle.svg

<svg xmlns="http://www.w3.org/2000/svg" viewBox="0 0 640 512"><!--! Font Awesome Pro 6.6.0 by @fontawesome - https://fontawesome.com License - https://fontawesome.com/license (Commercial License) Copyright 2024 Fonticons, Inc. --><path d="M120 0C106.7 0 96 10.7 96 24l0 24-8 0C74.7 48 64 58.7 64 72s10.7 24 24 24l144 0c13.3 0 24-10.7 24-24s-10.7-24-24-24l-8 0 0-24c0-13.3-10.7-24-24-24L120 0zm8 128C57.3 128 0 185.3 0 256L0 448c0 35.3 28.7 64 64 64l256 0c35.3 0 64-28.7 64-64l0-192c0-70.7-57.3-128-128-128l-128 0zm160 96c17.7 0 32 14.3 32 32l0 96c0 17.7-14.3 32-32 32s-32-14.3-32-32l0-96c0-17.7 14.3-32 32-32zM472 64c-13.3 0-24 10.7-24 24l0 40 128 0 0-40c0-13.3-10.7-24-24-24l-80 0zM416.4 392.4l-.4 .2 0 55.4c0 16.9-4.3 32.7-12 46.5c11.5 10.9 27 17.5 44 17.5l128 0c35.3 0 64-28.7 64-64c0-24.1-13.3-45.1-33-56c19.7-10.9 33-31.9 33-56c0-23.5-12.6-44-31.5-55.1c18.7-10.1 31.5-29.9 31.5-52.7c0-23.2-13.4-44.3-34.4-54.2l-13.2-6.2c-11-5.1-23-7.8-35.1-7.8l-90.6 0c-12.1 0-24.1 2.7-35.1 7.8L418.4 174c-6.9 3.2-13 7.7-18 13c10 20.9 15.6 44.3 15.6 69l0 135.4c.3 .2 .7 .4 1 .6c-.2 .1-.4 .2-.6 .4z"/></svg>

<svg xmlns="http://www.w3.org/2000/svg" viewBox="0 0 640 512"><!--! Font Awesome Pro 6.4.0 by @fontawesome - https://fontawesome.com License - https://fontawesome.com/license (Commercial License) Copyright 2023 Fonticons, Inc. --><path d="M120 0C106.7 0 96 10.7 96 24V48H88C74.7 48 64 58.7 64 72s10.7 24 24 24H232c13.3 0 24-10.7 24-24s-10.7-24-24-24h-8V24c0-13.3-10.7-24-24-24H120zm8 128C57.3 128 0 185.3 0 256V448c0 35.3 28.7 64 64 64H320c35.3 0 64-28.7 64-64V256c0-70.7-57.3-128-128-128H128zm160 96c17.7 0 32 14.3 32 32v96c0 17.7-14.3 32-32 32s-32-14.3-32-32V256c0-17.7 14.3-32 32-32zM472 64c-13.3 0-24 10.7-24 24v40H576V88c0-13.3-10.7-24-24-24H472zM416.4 392.4c-.1 .1-.2 .1-.4 .2V448c0 16.9-4.3 32.7-12 46.5c11.5 10.9 27 17.5 44 17.5H576c35.3 0 64-28.7 64-64c0-24.1-13.3-45.1-33-56c19.7-10.9 33-31.9 33-56c0-23.5-12.6-44-31.5-55.1c18.7-10.1 31.5-29.9 31.5-52.7c0-23.2-13.4-44.3-34.4-54.2l-13.2-6.2c-11-5.1-23-7.8-35.1-7.8H466.7c-12.1 0-24.1 2.7-35.1 7.8L418.4 174c-6.9 3.2-13 7.7-18 13c10 20.9 15.6 44.3 15.6 69V391.4c.3 .2 .7 .4 1 .6c-.2 .1-.4 .2-.6 .4z"/></svg>
